filter-off-outline.svg

<svg fill="currentColor" viewBox="0 0 24 24"><path d="M2.39 1.73 1.11 3 9 10.89v4.98c-.04.29.06.6.29.83l4.01 4.01c.39.39 1.02.39 1.41 0 .23-.21.33-.53.29-.83v-2.99l5.84 5.84 1.27-1.27L15 14.35v-.01l-2-1.99-2-2.01L4.15 3.5zM6.21 3 8.2 5h8.76l-3.85 4.91L15 11.8v-1.05l4.79-6.13a1 1 0 0 0-.17-1.4c-.19-.14-.4-.22-.62-.22zM11 12.89l2 2v2.69l-2-2z"/></svg>

<svg  viewBox="0 0 24 24" fill="currentColor"><path  d="M2.39 1.73L1.11 3L9 10.89V15.87C8.96 16.16 9.06 16.47 9.29 16.7L13.3 20.71C13.69 21.1 14.32 21.1 14.71 20.71C14.94 20.5 15.04 20.18 15 19.88V16.89L20.84 22.73L22.11 21.46L15 14.35V14.34L13 12.35L11 10.34L4.15 3.5L2.39 1.73M6.21 3L8.2 5H16.96L13.11 9.91L15 11.8V10.75L19.79 4.62C20.13 4.19 20.05 3.56 19.62 3.22C19.43 3.08 19.22 3 19 3H6.21M11 12.89L13 14.89V17.58L11 15.58V12.89Z"/></svg>
